X:1
T:Title
%%score ( 1 2 ) { 3 | 4 }
L:1/8
Q:1/4=170
M:4/2
K:Eb
V:1 treble nm="Grand Piano, Unnamed-000"
V:2 treble 
V:3 bass nm="Choir Pad, Unnamed-001"
V:4 bass 
V:1
 [EG]4 [DF]2 E2 [EB]6 [EB]2 | [Ec]4 [Ee]4 [EB]8 | [EG]4 [DF]2 E2 [EB]6 [Ec]2 | [EB]4 [EG]4 [DF]8 | %4
w: By~William~H.~Doane(1834\-1915) * * * *||||
 [EG]4 [DF]2 E2 [GB]6 [GB]2 | [Ac]4 c2 e2 [Ge]8 | [Ee]4 [Ed]2 [Ec]2 B2 G2 E2 [FA]2 | %7
w: |||
 [EG]4 [DF]4 E8 | [DB]4 [EB]2 [FB]2 B4- [GB]4 | [Ac]4 [Ad]2 [Ae]2 [Ge]8 | %10
w: |||
 [Ee]4 [Ed]2 [Ec]2 B2 G2 E2 [FA]2 | [EG]4 [DF]4 E8- | E4 z4 z8 |] %13
w: |||
V:2
 x16 | x16 | x16 | x16 | x16 | z4 E4 z8 | z8 E4 z4 | x16 | z8 E4 z4 | x16 | z8 E4 z4 | x16 | x16 |] %13
V:3
 B,4 A,2 G,2 G,6 G,2 | A,4 A,4 G,8 | B,4 A,2 G,2 G,6 A,2 | G,4 B,4 B,8 | %4
 B,4 A,2 G,2[K:treble] E6 E2 | E4 B,2 C2[K:bass] B,8 | C4 B,2 A,2 G,2 B,2 G,2 C2 | B,4 A,4 G,8 | %8
 F,4 G,2 A,2 G,2 B,2[K:treble] E4 | E4 B,2 C2 B,8 | C4[K:bass] B,2 A,2 G,2 B,2 G,2 C2 | %11
 B,4 A,4 G,8- | G,4 z4 z8 |] %13
V:4
 E,4 E,2 E,2 E,6 E,2 | A,,4 C,4 E,8 | E,4 E,2 E,2 E,6 E,2 | E,4 E,4 B,,8 | E,4 E,2 E,2 E,6 E,2 | %5
 A,4 A,4 E,8 | A,,4 A,,2 A,,2 B,,4 C,2 A,,2 | B,,4 B,,4 E,8 | B,,4 B,,2 B,,2 E,8 | %9
 A,4 A,2 A,2 E,8 | A,,4 A,,2 A,,2 B,,4 C,2 A,,2 | B,,4 B,,4 E,8- | E,4 z4 z8 |] %13

